; generated by PrusaSlicer 2.3.0+win64 on 2021-03-07 at 10:49:51 UTC

; 

; external perimeters extrusion width = 0.45mm
; perimeters extrusion width = 0.45mm
; infill extrusion width = 0.45mm
; solid infill extrusion width = 0.45mm
; top infill extrusion width = 0.40mm
; first layer extrusion width = 0.70mm

M107
M104 S200 ; set temperature
;TYPE:Custom
G28 ; home all axes
G1 Z5 F5000 ; lift nozzle
M109 S200 ; set temperature and wait for it to be reached
G21 ; set units to millimeters
G90 ; use absolute coordinates
M82 ; use absolute distances for extrusion
G92 E0
; Filament gcode
;LAYER_CHANGE
;Z:0.35
;HEIGHT:0.35
G1 Z0.350 F7800.000
G1 E-2.00000 F2400.000
G92 E0
G1 X64.600 Y63.637 F7800.000
G1 E2.00000 F2400.000
;TYPE:Skirt
;WIDTH:0.7
G1 F1800.000
G1 X65.731 Y62.980 E2.11892
G1 X66.968 Y62.558 E2.23783
G1 X68.271 Y62.387 E2.35733
G1 X132.590 Y62.384 E8.20578
G1 X133.835 Y62.503 E8.31952
G1 X135.035 Y62.854 E8.43325
G1 X136.149 Y63.425 E8.54699
G1 X137.135 Y64.194 E8.66073
G1 X137.739 Y64.847 E8.74162
G1 X145.598 Y74.685 E9.88662
G1 X146.087 Y75.474 E9.97097
G1 X153.708 Y90.077 E11.46874
G1 X154.166 Y91.302 E11.58766
G1 X154.373 Y92.587 E11.70600
G1 X154.383 Y106.134 E12.93788
G1 X154.246 Y107.295 E13.04414
G1 X153.908 Y108.413 E13.15039
G1 X145.856 Y124.611 E14.79522
G1 X137.127 Y135.492 E16.06362
G1 X136.107 Y136.389 E16.18714
G1 X134.931 Y137.056 E16.31008
G1 X133.644 Y137.471 E16.43303
G1 X132.300 Y137.616 E16.55597
G1 X68.943 Y137.614 E22.31697
G1 X67.757 Y137.476 E22.42553
G1 X66.621 Y137.129 E22.53351
G1 X65.560 Y136.582 E22.64207
G1 X64.615 Y135.853 E22.75062
G1 X55.370 Y125.100 E24.04006
G1 X54.843 Y124.392 E24.12037
G1 X46.341 Y109.278 E25.69717
G1 X45.809 Y107.858 E25.83506
G1 X45.615 Y106.354 E25.97294
G1 X45.618 Y91.936 E27.28394
G1 X45.772 Y90.708 E27.39653
G1 X46.153 Y89.529 E27.50912
G1 X54.980 Y74.343 E29.10637
G1 X63.616 Y64.508 E30.29644
G1 X64.555 Y63.677 E30.41048
G1 E28.41048 F2400.000
G92 E0
G1 X70.278 Y70.808 F7800.000
G1 E2.00000 F2400.000
;TYPE:Perimeter
G1 F1800.000
G1 X77.292 Y70.808 E2.63778
G1 X77.292 Y95.432 E4.87677
G1 X123.982 Y95.432 E9.12230
G1 X123.982 Y70.808 E11.36130
G1 X130.784 Y70.808 E11.97977
G1 X130.784 Y80.360 E12.84834
G1 X138.425 Y80.360 E13.54320
G1 X138.425 Y94.795 E14.85571
G1 X145.961 Y94.795 E15.54092
G1 X145.961 Y104.144 E16.39102
G1 X138.425 Y104.144 E17.07622
G1 X138.425 Y119.321 E18.45629
G1 X130.465 Y119.321 E19.18010
G1 X130.465 Y129.192 E20.07763
G1 X123.557 Y129.192 E20.70575
G1 X123.557 Y104.639 E22.93831
G1 X76.973 Y104.639 E27.17420
G1 X76.973 Y129.192 E29.40675
G1 X70.914 Y129.192 E29.95767
G1 X70.914 Y119.003 E30.88415
G1 X62.211 Y119.003 E31.67552
G1 X62.211 Y104.462 E32.99768
G1 X54.039 Y104.462 E33.74079
G1 X54.039 Y93.946 E34.69705
G1 X62.211 Y93.946 E35.44016
G1 X62.211 Y79.936 E36.71407
G1 X70.278 Y79.936 E37.44753
G1 X70.278 Y70.868 E38.27205
G1 E36.27205 F2400.000
G92 E0
G1 X77.916 Y94.807 F7800.000
G1 E2.00000 F2400.000
G1 F1800.000
G1 X123.357 Y94.807 E6.13190
G1 X123.357 Y70.183 E8.37089
G1 X131.409 Y70.183 E9.10300
G1 X131.409 Y79.736 E9.97158
G1 X139.050 Y79.736 E10.66644
G1 X139.050 Y94.170 E11.97895
G1 X146.586 Y94.170 E12.66416
G1 X146.586 Y104.769 E13.62789
G1 X139.050 Y104.769 E14.31310
G1 X139.050 Y119.946 E15.69317
G1 X131.090 Y119.946 E16.41698
G1 X131.090 Y129.817 E17.31450
G1 X122.933 Y129.817 E18.05627
G1 X122.933 Y105.264 E20.28883
G1 X77.598 Y105.264 E24.41107
G1 X77.598 Y129.817 E26.64363
G1 X70.290 Y129.817 E27.30819
G1 X70.290 Y119.628 E28.23467
G1 X61.586 Y119.628 E29.02604
G1 X61.586 Y105.087 E30.34820
G1 X53.414 Y105.087 E31.09131
G1 X53.414 Y93.321 E32.16121
G1 X61.586 Y93.321 E32.90432
G1 X61.586 Y79.311 E34.17823
G1 X69.653 Y79.311 E34.91169
G1 X69.653 Y70.183 E35.74166
G1 X77.916 Y70.183 E36.49308
G1 X77.916 Y94.747 E38.72661
G1 X78.541 Y94.182 F7800.000
;TYPE:External perimeter
G1 F1800.000
G1 X122.732 Y94.182 E42.74487
G1 X122.732 Y69.559 E44.98386
G1 X132.033 Y69.559 E45.82962
G1 X132.033 Y79.111 E46.69819
G1 X139.675 Y79.111 E47.39305
G1 X139.675 Y93.545 E48.70556
G1 X147.211 Y93.545 E49.39077
G1 X147.211 Y105.394 E50.46815
G1 X139.675 Y105.394 E51.15335
G1 X139.675 Y120.571 E52.53342
G1 X131.715 Y120.571 E53.25723
G1 X131.715 Y130.441 E54.15476
G1 X122.308 Y130.441 E55.01017
G1 X122.308 Y105.889 E57.24272
G1 X78.223 Y105.889 E61.25133
G1 X78.223 Y130.441 E63.48388
G1 X69.665 Y130.441 E64.26209
G1 X69.665 Y120.252 E65.18857
G1 X60.962 Y120.252 E65.97993
G1 X60.962 Y105.712 E67.30210
G1 X52.789 Y105.712 E68.04521
G1 X52.789 Y92.696 E69.22874
G1 X60.962 Y92.696 E69.97186
G1 X60.962 Y78.686 E71.24577
G1 X69.028 Y78.686 E71.97923
G1 X69.028 Y69.559 E72.80920
G1 X78.541 Y69.559 E73.67426
G1 X78.541 Y94.122 E75.90779
G1 X78.590 Y94.579 F7800.000
G1 E73.90779 F2400.000
G92 E0
G1 X137.115 Y80.548 F7800.000
G1 E2.00000 F2400.000
;TYPE:Solid infill
;WIDTH:0.700489
G1 F1800.000
G1 X137.957 Y81.389 E2.10829
G1 X137.957 Y82.274 E2.18877
G1 X136.512 Y80.829 E2.37468
G1 X135.628 Y80.829 E2.45517
G1 X137.957 Y83.158 E2.75490
G1 X137.957 Y84.043 E2.83538
G1 X134.743 Y80.829 E3.24894
G1 X133.859 Y80.829 E3.32942
G1 X137.957 Y84.927 E3.85680
G1 X137.957 Y85.811 E3.93728
G1 X132.974 Y80.829 E4.57847
G1 X132.090 Y80.829 E4.65896
G1 X137.957 Y86.696 E5.41397
G1 X137.957 Y87.580 E5.49445
G1 X130.924 Y80.548 E6.39948
G1 E4.39948 F2400.000
G92 E0
G1 X129.332 Y70.996 F7800.000
G1 E2.00000 F2400.000
G1 F1800.000
G1 X130.315 Y71.979 E2.12651
G1 X130.315 Y72.863 E2.20699
G1 X128.729 Y71.277 E2.41113
G1 X127.844 Y71.277 E2.49161
G1 X130.315 Y73.748 E2.80957
G1 X130.315 Y74.632 E2.89005
G1 X126.960 Y71.277 E3.32183
G1 X126.076 Y71.277 E3.40231
G1 X130.315 Y75.516 E3.94791
G1 X130.315 Y76.401 E4.02839
G1 X125.191 Y71.277 E4.68781
G1 X124.451 Y71.277 E4.75519
G1 X124.451 Y71.421 E4.76829
G1 X130.315 Y77.285 E5.52300
G1 X130.315 Y78.170 E5.60349
G1 X124.451 Y72.305 E6.35820
G1 X124.451 Y73.190 E6.43868
G1 X130.315 Y79.054 E7.19339
G1 X130.315 Y79.939 E7.27388
G1 X124.451 Y74.074 E8.02859
G1 X124.451 Y74.959 E8.10907
G1 X137.957 Y88.465 E9.84723
G1 X137.957 Y89.349 E9.92771
G1 X124.451 Y75.843 E11.66587
G1 X124.451 Y76.727 E11.74635
G1 X137.957 Y90.234 E13.48451
G1 X137.957 Y91.118 E13.56499
G1 X124.451 Y77.612 E15.30315
G1 X124.451 Y78.496 E15.38364
G1 X137.957 Y92.002 E17.12179
G1 X137.957 Y92.887 E17.20228
G1 X124.451 Y79.381 E18.94044
G1 X124.451 Y80.265 E19.02092
G1 X138.238 Y94.052 E20.79527
G1 E18.79527 F2400.000
G92 E0
G1 X144.474 Y94.982 F7800.000
G1 E2.00000 F2400.000
G1 F1800.000
G1 X145.492 Y96.000 E2.13101
G1 X145.492 Y96.885 E2.21149
G1 X143.871 Y95.264 E2.42013
G1 X142.987 Y95.264 E2.50061
G1 X145.492 Y97.769 E2.82307
G1 X145.492 Y98.654 E2.90355
G1 X142.102 Y95.264 E3.33983
G1 X141.218 Y95.264 E3.42031
G1 X145.492 Y99.538 E3.97041
G1 X145.492 Y100.422 E4.05089
G1 X140.333 Y95.264 E4.71481
G1 X139.449 Y95.264 E4.79529
G1 X145.492 Y101.307 E5.57303
G1 X145.492 Y102.191 E5.65351
G1 X138.565 Y95.264 E6.54507
G1 X137.957 Y95.264 E6.60039
G1 X137.957 Y94.656 E6.65571
G1 X124.451 Y81.150 E8.39386
G1 X124.451 Y82.034 E8.47435
G1 X145.492 Y103.076 E11.18229
G1 X145.492 Y103.675 E11.23685
G1 X145.207 Y103.675 E11.26278
G1 X124.451 Y82.918 E13.93406
G1 X124.451 Y83.803 E14.01454
G1 X144.323 Y103.675 E16.57200
G1 X143.439 Y103.675 E16.65248
G1 X124.451 Y84.687 E19.09612
G1 X124.451 Y85.572 E19.17660
G1 X142.554 Y103.675 E21.50642
G1 X141.670 Y103.675 E21.58691
G1 X124.451 Y86.456 E23.80291
G1 X124.451 Y87.340 E23.88339
G1 X140.785 Y103.675 E25.98557
G1 X139.901 Y103.675 E26.06605
G1 X124.451 Y88.225 E28.05442
G1 X124.451 Y89.109 E28.13490
G1 X139.017 Y103.675 E30.00944
G1 X138.132 Y103.675 E30.08992
G1 X124.451 Y89.994 E31.85065
G1 X124.451 Y90.878 E31.93113
G1 X137.957 Y104.384 E33.66929
G1 X137.957 Y105.269 E33.74977
G1 X124.451 Y91.763 E35.48793
G1 X124.451 Y92.647 E35.56841
G1 X137.957 Y106.153 E37.30657
G1 X137.957 Y107.037 E37.38705
G1 X124.451 Y93.531 E39.12521
G1 X124.451 Y94.416 E39.20569
G1 X137.957 Y107.922 E40.94385
G1 X137.957 Y108.806 E41.02434
G1 X124.451 Y95.300 E42.76250
G1 X124.451 Y95.900 E42.81711
G1 X124.166 Y95.900 E42.84298
G1 X137.957 Y109.691 E44.61773
G1 X137.957 Y110.575 E44.69821
G1 X123.282 Y95.900 E46.58678
G1 X122.398 Y95.900 E46.66726
G1 X137.957 Y111.460 E48.66965
G1 X137.957 Y112.344 E48.75013
G1 X121.513 Y95.900 E50.86634
G1 X120.629 Y95.900 E50.94682
G1 X137.957 Y113.228 E53.17685
G1 X137.957 Y114.113 E53.25733
G1 X119.744 Y95.900 E55.60117
G1 X118.860 Y95.900 E55.68166
G1 X137.957 Y114.997 E58.13932
G1 X137.957 Y115.882 E58.21981
G1 X117.975 Y95.900 E60.79129
G1 X117.091 Y95.900 E60.87177
G1 X137.957 Y116.766 E63.55708
G1 X137.957 Y117.650 E63.63756
G1 X116.207 Y95.900 E66.43669
G1 X115.322 Y95.900 E66.51717
G1 X137.957 Y118.535 E69.43011
G1 X137.957 Y118.852 E69.45901
G1 X137.390 Y118.852 E69.51060
G1 X124.026 Y105.489 E71.23044
G1 X124.026 Y106.373 E71.31092
G1 X136.505 Y118.852 E72.91694
G1 X135.621 Y118.852 E72.99742
G1 X124.026 Y107.258 E74.48963
G1 X124.026 Y108.142 E74.57011
G1 X134.737 Y118.852 E75.94849
G1 X133.852 Y118.852 E76.02897
G1 X124.026 Y109.026 E77.29353
G1 X124.026 Y109.911 E77.37402
G1 X132.968 Y118.852 E78.52476
G1 X132.083 Y118.852 E78.60524
G1 X124.026 Y110.795 E79.64216
G1 X124.026 Y111.680 E79.72265
G1 X131.199 Y118.852 E80.64575
G1 X130.315 Y118.852 E80.72623
G1 X124.026 Y112.564 E81.53552
G1 X124.026 Y113.448 E81.61600
G1 X129.997 Y119.419 E82.38437
G1 X129.997 Y120.303 E82.46485
G1 X124.026 Y114.333 E83.23322
G1 X124.026 Y115.217 E83.31371
G1 X129.997 Y121.188 E84.08208
G1 X129.997 Y122.072 E84.16256
G1 X124.026 Y116.102 E84.93093
G1 X124.026 Y116.986 E85.01141
G1 X129.997 Y122.957 E85.77978
G1 X129.997 Y123.841 E85.86027
G1 X124.026 Y117.871 E86.62864
G1 X124.026 Y118.755 E86.70912
G1 X129.997 Y124.725 E87.47749
G1 X129.997 Y125.610 E87.55797
G1 X124.026 Y119.639 E88.32634
G1 X124.026 Y120.524 E88.40683
G1 X129.997 Y126.494 E89.17520
G1 X129.997 Y127.379 E89.25568
G1 X124.026 Y121.408 E90.02405
G1 X124.026 Y122.293 E90.10453
G1 X129.997 Y128.263 E90.87290
G1 X129.997 Y128.723 E90.91475
G1 X129.572 Y128.723 E90.95339
G1 X124.026 Y123.177 E91.66712
G1 X124.026 Y124.061 E91.74760
G1 X128.688 Y128.723 E92.34752
G1 X127.803 Y128.723 E92.42800
G1 X124.026 Y124.946 E92.91409
G1 X124.026 Y125.830 E92.99458
G1 X126.919 Y128.723 E93.36685
G1 X126.034 Y128.723 E93.44733
G1 X124.026 Y126.715 E93.70579
G1 X124.026 Y127.599 E93.78627
G1 X125.150 Y128.723 E93.93091
G1 X124.266 Y128.723 E94.01139
G1 X123.745 Y128.202 E94.07840
G1 E92.07840 F2400.000
G92 E0
G1 X122.989 Y104.452 F7800.000
G1 E2.00000 F2400.000
G1 F1800.000
G1 X114.438 Y95.900 E3.10050
G1 X113.553 Y95.900 E3.18099
G1 X121.823 Y104.170 E4.24530
G1 X120.939 Y104.170 E4.32579
G1 X112.669 Y95.900 E5.39010
G1 X111.785 Y95.900 E5.47058
G1 X120.055 Y104.170 E6.53490
G1 X119.170 Y104.170 E6.61538
G1 X110.900 Y95.900 E7.67970
G1 X110.016 Y95.900 E7.76018
G1 X118.286 Y104.170 E8.82450
G1 X117.401 Y104.170 E8.90498
G1 X109.131 Y95.900 E9.96929
G1 X108.247 Y95.900 E10.04978
G1 X116.517 Y104.170 E11.11409
G1 X115.633 Y104.170 E11.19458
G1 X107.362 Y95.900 E12.25889
G1 X106.478 Y95.900 E12.33937
G1 X114.748 Y104.170 E13.40369
G1 X113.864 Y104.170 E13.48417
G1 X105.594 Y95.900 E14.54849
G1 X104.709 Y95.900 E14.62897
G1 X112.979 Y104.170 E15.69329
G1 X112.095 Y104.170 E15.77377
G1 X103.825 Y95.900 E16.83808
G1 X102.940 Y95.900 E16.91857
G1 X111.210 Y104.170 E17.98288
G1 X110.326 Y104.170 E18.06337
G1 X102.056 Y95.900 E19.12768
G1 X101.171 Y95.900 E19.20816
G1 X109.442 Y104.170 E20.27248
G1 X108.557 Y104.170 E20.35296
G1 X100.287 Y95.900 E21.41728
G1 X99.403 Y95.900 E21.49776
G1 X107.673 Y104.170 E22.56208
G1 X106.788 Y104.170 E22.64256
G1 X98.518 Y95.900 E23.70687
G1 X97.634 Y95.900 E23.78736
G1 X105.904 Y104.170 E24.85167
G1 X105.019 Y104.170 E24.93216
G1 X96.749 Y95.900 E25.99647
G1 X95.865 Y95.900 E26.07695
G1 X104.135 Y104.170 E27.14127
G1 X103.251 Y104.170 E27.22175
G1 X94.981 Y95.900 E28.28607
G1 X94.096 Y95.900 E28.36655
G1 X102.366 Y104.170 E29.43087
G1 X101.482 Y104.170 E29.51135
G1 X93.212 Y95.900 E30.57566
G1 X92.327 Y95.900 E30.65615
G1 X100.597 Y104.170 E31.72046
G1 X99.713 Y104.170 E31.80094
G1 X91.443 Y95.900 E32.86526
G1 X90.558 Y95.900 E32.94574
G1 X98.829 Y104.170 E34.01006
G1 X97.944 Y104.170 E34.09054
G1 X89.674 Y95.900 E35.15486
G1 X88.790 Y95.900 E35.23534
G1 X97.060 Y104.170 E36.29966
G1 X96.175 Y104.170 E36.38014
G1 X87.905 Y95.900 E37.44445
G1 X87.021 Y95.900 E37.52494
G1 X95.291 Y104.170 E38.58925
G1 X94.406 Y104.170 E38.66973
G1 X86.136 Y95.900 E39.73405
G1 X85.252 Y95.900 E39.81453
G1 X93.522 Y104.170 E40.87885
G1 X92.638 Y104.170 E40.95933
G1 X84.368 Y95.900 E42.02365
G1 X83.483 Y95.900 E42.10413
G1 X91.753 Y104.170 E43.16845
G1 X90.869 Y104.170 E43.24893
G1 X82.599 Y95.900 E44.31324
G1 X81.714 Y95.900 E44.39373
G1 X89.984 Y104.170 E45.45804
G1 X89.100 Y104.170 E45.53852
G1 X80.830 Y95.900 E46.60284
G1 X79.945 Y95.900 E46.68332
G1 X88.216 Y104.170 E47.74764
G1 X87.331 Y104.170 E47.82812
G1 X79.061 Y95.900 E48.89244
G1 X78.177 Y95.900 E48.97292
G1 X86.728 Y104.452 E50.07342
G1 E48.07342 F2400.000
G92 E0
G1 X77.104 Y71.833 F7800.000
G1 E2.00000 F2400.000
G1 F1800.000
G1 X76.548 Y71.277 E2.07155
G1 X75.664 Y71.277 E2.15204
G1 X76.823 Y72.436 E2.30122
G1 X76.823 Y73.321 E2.38171
G1 X74.779 Y71.277 E2.64471
G1 X73.895 Y71.277 E2.72519
G1 X76.823 Y74.205 E3.10202
G1 X76.823 Y75.089 E3.18250
G1 X73.010 Y71.277 E3.67314
G1 X72.126 Y71.277 E3.75363
G1 X76.823 Y75.974 E4.35809
G1 X76.823 Y76.858 E4.43857
G1 X71.242 Y71.277 E5.15686
G1 X70.746 Y71.277 E5.20193
G1 X70.746 Y71.666 E5.23734
G1 X76.823 Y77.743 E6.01937
G1 X76.823 Y78.627 E6.09985
G1 X70.746 Y72.550 E6.88188
G1 X70.746 Y73.435 E6.96236
G1 X76.823 Y79.512 E7.74439
G1 X76.823 Y80.396 E7.82488
G1 X70.746 Y74.319 E8.60690
G1 X70.746 Y75.204 E8.68739
G1 X76.823 Y81.280 E9.46942
G1 X76.823 Y82.165 E9.54990
G1 X70.746 Y76.088 E10.33193
G1 X70.746 Y76.973 E10.41241
G1 X76.823 Y83.049 E11.19444
G1 X76.823 Y83.934 E11.27492
G1 X70.746 Y77.857 E12.05695
G1 X70.746 Y78.741 E12.13744
G1 X76.823 Y84.818 E12.91947
G1 X76.823 Y85.702 E12.99995
G1 X70.746 Y79.626 E13.78198
G1 X70.746 Y80.405 E13.85285
G1 X70.641 Y80.405 E13.86246
G1 X76.823 Y86.587 E14.65809
G1 X76.823 Y87.471 E14.73857
G1 X69.756 Y80.405 E15.64802
G1 X68.872 Y80.405 E15.72850
G1 X76.823 Y88.356 E16.75176
G1 X76.823 Y89.240 E16.83225
G1 X67.987 Y80.405 E17.96933
G1 X67.103 Y80.405 E18.04981
G1 X76.823 Y90.125 E19.30072
G1 X76.823 Y91.009 E19.38120
G1 X66.219 Y80.405 E20.74593
G1 X65.334 Y80.405 E20.82641
G1 X76.823 Y91.893 E22.30495
G1 X76.823 Y92.778 E22.38544
G1 X64.450 Y80.405 E23.97780
G1 X63.565 Y80.405 E24.05828
G1 X76.823 Y93.662 E25.76447
G1 X76.823 Y94.547 E25.84495
G1 X62.681 Y80.405 E27.66495
G1 X62.680 Y81.288 E27.74536
G1 X85.562 Y104.170 E30.69018
G1 X84.678 Y104.170 E30.77066
G1 X62.680 Y82.173 E33.60166
G1 X62.680 Y83.057 E33.68214
G1 X83.793 Y104.170 E36.39932
G1 X82.909 Y104.170 E36.47980
G1 X62.680 Y83.941 E39.08316
G1 X62.680 Y84.826 E39.16365
G1 X82.025 Y104.170 E41.65319
G1 X81.140 Y104.170 E41.73367
G1 X62.680 Y85.710 E44.10939
G1 X62.680 Y86.595 E44.18987
G1 X80.256 Y104.170 E46.45177
G1 X79.371 Y104.170 E46.53226
G1 X62.680 Y87.479 E48.68034
G1 X62.680 Y88.364 E48.76082
G1 X78.487 Y104.170 E50.79508
G1 X77.603 Y104.170 E50.87556
G1 X62.680 Y89.248 E52.79601
G1 X62.680 Y90.132 E52.87649
G1 X76.718 Y104.170 E54.68311
G1 X76.505 Y104.170 E54.70255
G1 X76.505 Y104.841 E54.76359
G1 X62.680 Y91.017 E56.54273
G1 X62.680 Y91.901 E56.62321
G1 X76.505 Y105.726 E58.40235
G1 X76.505 Y106.610 E58.48283
G1 X62.680 Y92.786 E60.26197
G1 X62.680 Y93.670 E60.34245
G1 X76.505 Y107.495 E62.12159
G1 X76.505 Y108.379 E62.20207
G1 X62.540 Y94.414 E63.99922
G1 X61.656 Y94.414 E64.07971
G1 X76.505 Y109.263 E65.99068
G1 X76.505 Y110.148 E66.07116
G1 X60.771 Y94.414 E68.09596
G1 X59.887 Y94.414 E68.17644
G1 X76.505 Y111.032 E70.31505
G1 X76.505 Y111.917 E70.39553
G1 X59.002 Y94.414 E72.64797
G1 X58.118 Y94.414 E72.72845
G1 X76.505 Y112.801 E75.09470
G1 X76.505 Y113.685 E75.17518
